X:1
T: Elgin Junior Strathspey and Reel Players' March
C:William Macpherson
R:Reel
Q: 232
K:D
M:4/4
L:1/8
|:FE|"$"D2 D2 d2 AF|G2 E2 e2 ef|gf ed cd ed|c2 A2 AG FE|
D2 D2 A2 dA|B2 e2 g2 ag|fd Ad cA GE|F2 d2 D2:|
|:FG|Ad cd Ad cd|Gd cd Gd cd|Fd Ad fd ef|e2 a2 ag fe|
dc dA FG A=c|B^A Be gf ed|cc Ac eg fe|d2 f2"Fine" d2:|
K:A
cB|A2 a2 ag fg|af ed cB Ac|dB eA cA eA|((3BcB) ((3AGF) EG Bd|
A2 a2 fg ae|Ae df eA ce|f2 B2 g2 ((3efg) |1a2 A2 A2:|2a2 =g2 f2"D.S." e2||
